X:9
T:Kinnon and Betty Lou at West Mabou
R:jig
C:Dougie MacDonald
O:20th century Cape Breton
D:A Miner
B:Fiddle Tunes,1993
N:Bookings,Mechanicals etc.
N:..... Dougie MacDonald <dougmd68@hotmail.com>
Z:P.S.C.
S:http://www.cranfordpub.com/dougie
Q:300
L:1/8
M:6/8
K:Bb
D F2 FED|DBB dcB|GGG GcB|AGF edc|!
d2 B cdc|Bdc BFD|EGc DFB|[1AGA BFE:|[2AGA B||
AB|:d2 G G^FG|BAB dcB|AFF dFF|[1Acf dcA|
d2 G G^FG|BAB dcB|AFF dcA|BGG GBc:|
[2Acf fga|b2 f gbg|fdB Bdf|g2 e dfg|fdB B3|]
W:Copyrights - Dougie MacDonald (SOCAN)

